X: 3194
T: GEORDIE JACK
C: Carl Volti
Q: "Reel."
R: Reel.
%R: reel
B: James Kerr "Merry Melodies" v.3 p.22 #194
Z: 2016 John Chambers <jc:trillian.mit.edu>
M: C
L: 1/8
K: Eb
|:\
e2ge c2ec | (Bc)BA GFE2 |\
B,EDE CF=EF |[1 DB=AB GEGB :|[2 DAFD E2B2 |]
|:\
edef geBG | BAFD B,DFA |\
[1 GBef geBG | BAFD E2B2 :|\
[2 GEDE CF=EF | DAFD E2B2 |]

% %newpage
%%sep 1 1 500
%%sep 1 1 500
%%center HIGHLAND SCHOTTISCHES

%%sep 1 1 500
%%sep 1 1 500

